X: 1
T: la Vie en Rose
C: Louiguy
Z: 2011 John Chambers <jc:trillian.mit.edu> 
F: http://216.129.110.22/files/imglnks/usimg/3/3f/IMSLP23546-PMLP53697-Finale_2009_-_-La_Vie_en_Rose_para_trio__2_violinos_e_viola_-.pdf
M: C
L: 1/8
K: C
ed |\
c2fe d2[ge][fd] | [ec][cA] [AF][FD] H[EC] || EED |
CB,CD HE "//"y FFE | D^CDE HF "//"y GGF | EDEF HG "//"y GGG | GG^DE HG4 ||
|:\
"C"c3 B AG Ec | "Cmaj7"B3 A "C6"GE CB | "C"A3 G EB, CB | "Dm7"[A4F4] "G7"[G4B,4] |
"Dm"d3 c "G7"BA Fc | "Dm"B3 A "Dm"GF DB | A3 G "G7"F^C DB | "C"A4 "Dm G7"G4 |
"C"dd2c dd2c | dd2c G4 | dd2c dd2c | dd2c e2 Hd2 | c3 B AG Ec |
B3 A GE CB | A3 G A2 B2 |1 [c2-G2] [c2-_G] [c2F2] z2 :|2 c6 z2 | Hc'2 z2 z4 |]
